assets/icons/quiz-ordering.svg

<svg width="32" height="32" viewBox="0 0 32 32" fill="none" xmlns="http://www.w3.org/2000/svg">
<rect width="32" height="32" rx="4" fill="#FFEB98"/>
<path d="M13.7188 20.9435C13.7188 20.3912 14.1665 19.9435 14.7188 19.9435H17.2734C17.8257 19.9435 18.2734 20.3912 18.2734 20.9435V23.4981C18.2734 24.0504 17.8257 24.4981 17.2734 24.4981H14.7187C14.1665 24.4981 13.7188 24.0504 13.7188 23.4981V20.9435Z" fill="#BE4C1A"/>
<path d="M13.7188 15.9942C13.7188 14.7365 14.7384 13.7169 15.9961 13.7169C17.2538 13.7169 18.2734 14.7365 18.2734 15.9942C18.2734 17.252 17.2538 18.2716 15.9961 18.2716C14.7384 18.2716 13.7188 17.252 13.7188 15.9942Z" fill="#BE4C1A"/>
<path d="M15.5147 8.32856C15.7278 7.95949 16.2605 7.95949 16.4736 8.32856L18.1416 11.2177C18.3547 11.5868 18.0884 12.0481 17.6622 12.0481H14.3261C13.8999 12.0481 13.6335 11.5868 13.8466 11.2177L15.5147 8.32856Z" fill="#BE4C1A"/>
</svg>

<svg xmlns="http://www.w3.org/2000/svg" width="32" height="32" fill="none" viewBox="0 0 32 32"><rect width="32" height="32" fill="#FFEB98" rx="4"/><path fill="#BE4C1A" d="M13.719 20.944a1 1 0 0 1 1-1h2.554a1 1 0 0 1 1 1v2.554a1 1 0 0 1-1 1H14.72a1 1 0 0 1-1-1v-2.555ZM13.719 15.994a2.277 2.277 0 1 1 4.554 0 2.277 2.277 0 0 1-4.554 0ZM15.515 8.329a.554.554 0 0 1 .959 0l1.668 2.889a.554.554 0 0 1-.48.83h-3.336a.554.554 0 0 1-.48-.83l1.669-2.89Z"/></svg>
